packages/foundations/icons/Activities/Skull.svg

<svg width="24" height="24" viewBox="0 0 24 24" fill="none" xmlns="http://www.w3.org/2000/svg">
<path fill-rule="evenodd" clip-rule="evenodd" d="M12 1C17.4335 1 21.8481 5.32152 21.9962 10.7264L22 11.0069V13C22 15.6054 20.0357 18.1035 17.5183 18.7519L17.2948 18.8042L17.263 18.811L17.2632 18.999C17.2632 20.5375 16.1047 21.8064 14.6137 21.9798L14.4999 21.9889C14.5 21.9926 14.5 21.9963 14.5 22C14.5 22.5523 14.0523 23 13.5 23C12.9477 23 12.5 22.5523 12.5 22H11.5C11.5 22.5523 11.0523 23 10.5 23C9.94772 23 9.5 22.5523 9.5 22L9.50129 21.9909C8.01334 21.8753 6.8287 20.6698 6.74194 19.175L6.73684 18.999L6.736 18.811L6.47509 18.7502C4.11265 18.1382 2.23655 15.8925 2.02073 13.4648L2.00507 13.2293L2 13V11.0069C2 5.68332 6.15924 1.31371 11.4411 1.01585L11.7201 1.00394L12 1ZM12 3L11.7635 3.00342C7.5286 3.12612 4.13284 6.53728 4.0038 10.7578L4 11.0069V13C4 14.6724 5.32204 16.3639 6.93764 16.8037L7.11831 16.8474L8.73684 17.1891V18.999C8.73684 19.5103 9.12423 19.9351 9.61974 19.9932L9.73588 20H14.2641C14.7755 20 15.1986 19.6133 15.2564 19.1156L15.2632 18.999V17.1891L16.8817 16.8474C18.5195 16.5016 19.8982 14.8603 19.9946 13.1861L20 13V11.0069C20 6.57648 16.4228 3 12 3ZM12.7185 12.971L12.8 13.0667L13.8 14.4C13.9298 14.5731 14 14.7836 14 15C14 15.5128 13.614 15.9355 13.1166 15.9933L13 16H11C10.7836 16 10.5731 15.9298 10.4 15.8C9.99216 15.4941 9.88449 14.9365 10.131 14.505L10.2 14.4L11.2 13.0667C11.2569 12.9909 11.3242 12.9235 11.4 12.8667C11.8078 12.5608 12.3733 12.6136 12.7185 12.971ZM8 9C9.10457 9 10 9.89543 10 11C10 12.1046 9.10457 13 8 13C6.89543 13 6 12.1046 6 11C6 9.89543 6.89543 9 8 9ZM16 9C17.1046 9 18 9.89543 18 11C18 12.1046 17.1046 13 16 13C14.8954 13 14 12.1046 14 11C14 9.89543 14.8954 9 16 9Z" fill="#3D474D"/>
</svg>

<svg width="24" height="24" fill="none" xmlns="http://www.w3.org/2000/svg"><path fill-rule="evenodd" clip-rule="evenodd" d="M12 1a9.995 9.995 0 019.996 9.726l.004.28V13c0 2.605-1.964 5.104-4.482 5.752l-.223.052-.032.007v.188a3.002 3.002 0 01-2.65 2.98l-.113.01V22a1 1 0 11-2 0h-1a1 1 0 11-2 0l.001-.01a3.004 3.004 0 01-2.76-2.815l-.004-.176-.001-.188-.26-.06c-2.363-.613-4.24-2.859-4.455-5.286l-.016-.236L2 13v-1.993c0-5.324 4.16-9.693 9.441-9.991l.28-.012L12 1zm0 2l-.236.003c-4.235.123-7.631 3.534-7.76 7.755L4 11.007V13c0 1.672 1.322 3.364 2.938 3.804l.18.043 1.619.342V19c0 .511.387.936.883.994l.116.007h4.528a1 1 0 00.992-.884l.007-.117v-1.81l1.619-.342c1.637-.345 3.016-1.987 3.113-3.66L20 13v-1.993A7.995 7.995 0 0012 3zm.719 9.971l.081.096 1 1.333a1 1 0 01-.683 1.593L13 16h-2a1 1 0 01-.869-1.495l.069-.105 1-1.333a1 1 0 011.519-.096zM8 9a2 2 0 110 4 2 2 0 010-4zm8 0a2 2 0 110 4 2 2 0 010-4z" fill="#3D474D"/></svg>
